X:1
T:One Thousand Years
T:One Thousand Years
T:Lucious D. Morris
T:Jennie Wilson, 1913
T:Public Domain Courtesy of the Cyber Hymnal™
T:Public Domain Courtesy of the Cyber Hymnal™
C:Lucious D. Morris
Z:Public Domain
Z:Courtesy of the Cyber Hymnal™
%%score ( 1 2 ) ( 3 4 )
L:1/8
Q:1/4=85
M:4/4
K:Db
V:1 treble 
V:2 treble 
V:3 bass 
V:4 bass 
V:1
 D | [DF]>[DF] [CE]D [DF][EG][FA][Ad] | [Bd]>[Bd] [Ac][GB] [FA]3 [FA] | %3
w: 1.~The|prom- ise has been giv- en that our|Lord will come a- gain, And|
w: 2.~Then|Sa- tan shall be bound with chains and|in the pit be thrown, Where,|
w: 3.~Oh!|bless- èd are the faith- ful who shall|then be first to rise, For|
 [EA]>[CE] [DF][EG] [DF][EG][FA][Fd] | [Ec]>[DA] [DB][Ec] [CA]3 D | %5
w: earth will bloom with beau- ty when with|an- gels He ap- pears; Then|
w: held a cap- tive he no more the|na- tions can de- ceive; While|
w: o- ver them the se- cond death no|pow- er can ob- tain; Their|
 [DF]>[DF] [CE]D [DF][EG][FA][Ad] | [Bd]>[Bd] [Ac][GB] [FA]3 | %7
w: He o’er sin will tri- umph, and no|death, no grief nor pain|
w: those who have been true to Christ and|suff- ering for Him known,|
w: Sav- ior’s face they shall be- hold with|glad, a- dor- ing eyes,|
 [FA][Fd]>[=Ed][Gd] [G_e][Af][Fd][Fd]A | [GB]>[Gd] [Ec][Ge] [Fd]3 ||"^Refrain" [FA] | %10
w: Shall be in His do- min- ion while He|reigns one thou- sand years.||
w: The re- sur- rect- ion call shall hear and|all their graves shall leave.|One|
w: And shar- ing in His king- dom, they one|thou- sand years shall reign.||
 [Fd]>[Fd] [Ec][Ge] [Fd] [FA]2 [DF] | [FA]>[FA] [GB][GB] [FA]3 [FA] | %12
w: ||
w: thou- sand years of glad- ness, one|thou- sand years of peace, Shall|
w: ||
 [GB]>[GB] [AB][AB] [=GB][AB]B[Bd] | [Ac]>[Ac] [=Gd][Gd] e3 [_GA] | %14
w: ||
w: come when Je- sus reigns on earth and|bids all strife to cease; One|
w: ||
 [Fd]>[Fd] [Ec][Ge] [Fd] [FA]2 [DF] | [CG]>[CG] [DA][DA] [DB]3 [DB] | %16
w: ||
w: thou- sand years of bless- ing, one|thou- sand years of love, Will|
w: ||
 [Gd]>[Gd] [Gc][GB] [FA] [Ad]2 [Be] | [Af]<[Fd] [Ge]>[Ge] [Fd]3 |] %18
w: ||
w: make this world re- splend- ent with|glo- ry from a- bove.|
w: ||
V:2
 D | x3 D x4 | x8 | x8 | x7 D | x3 D x4 | x7 | x8 A | x7 || x | x8 | x8 | x6 B x | x4 (ABA) x | %14
 x8 | x8 | x8 | x7 |] %18
V:3
 [D,F,] | [D,A,]>[D,A,] [D,G,][D,F,] [D,A,][D,A,][D,D][F,D] | [G,D]>[G,D] [G,D][G,D] [D,D]3 [D,D] | %3
 [A,,C]>[A,,A,] [A,,A,][A,,A,] [D,A,][D,A,][D,D][D,A,] | %4
 [E,A,]>[E,A,] [E,=G,][E,G,] [A,,A,]3 [D,F,] | [D,A,]>[D,A,] [D,G,][D,F,] [D,A,][D,A,][D,D][F,D] | %6
 [G,D]>[G,D] [G,D][G,D] [D,D]3 | [D,D][D,A,]>[D,B,][D,A,] [D,A,][D,D][D,A,][D,A,][F,D] | %8
 [G,D]>[G,B,] A,A, [D,A,]3 || [D,D] | [D,A,]>[D,A,] [A,,A,][A,,A,] [D,A,] [D,D]2 [D,A,] | %11
 [D,D]>[D,D] [G,D][G,D] [D,D]3 [D,D] | [G,D]>[G,D] [_D,=D][_D,D] [E,E][F,_D][=G,E][E,E] | %13
 [A,E]>[A,E] [B,E][B,E] ([A,C][=G,E][A,C])[A,C] | %14
 [D,A,]>[D,A,] [A,,A,][A,,A,] [D,A,] [D,D]2 [D,A,] | [E,A,]>[E,A,] [F,A,][F,A,] G,3 G, | %16
 [G,B,]>[G,B,] [G,C][G,D] [D,D] [F,D]2 [G,D] | [A,D]<[A,D] [A,C]>A, [D,A,]3 |] %18
V:4
 x | x8 | x8 | x8 | x8 | x8 | x7 | x9 | x2 A,A, x3 || x | x8 | x8 | x8 | x8 | x8 | x4 G,3 G, | x8 | %17
 x7/2 A,/ x3 |] %18

